!!!COM: Bach, Johann Sebastian
!!!OTL: 276. Lobt Gott, ihr Christen, allzugleich
!!!ONM: No. 276
!!!OCL: Erk
!!!SCA: BWV 375
!!!YOE: Riemenschneider, Albert
!!!OPR: 371 Harmonized Chorales and 69 Chorale Melodies with Figured Bass
!!!OPT: Bach Chorale Harmonizations
**harm	**root	**kern	**kern	**kern	**kern
!	!	!bass	!tenor	!alto	!sprno
*Iorgan	*Iorgan	*Iorgan	*Iorgan	*Iorgan	*Iorgan
*k[b-e-]	*k[b-e-]	*k[b-e-]	*k[b-e-]	*k[b-e-]	*k[b-e-]
*B-:	*B-:	*B-:	*B-:	*B-:	*B-:
*met(c)	*met(c)	*met(c)	*met(c)	*met(c)	*met(c)
*M4/4	*M4/4	*M4/4	*M4/4	*M4/4	*M4/4
*MM60	*MM60	*MM60	*MM60	*MM60	*MM60
I	4GG	4B-	4d	4f	4b-
=1	=1	=1	=1	=1	=1
Vb	4DD	4A	4c	8f	4ff
.	.	.	.	8g	.
V	4DD	4F	8c	4a	4ff
.	.	.	16d	.	.
.	.	.	16e-	.	.
I	4GG	8B-	8d	4b-	4ff
.	.	8c	8c	.	.
I	4GG	8d	4B-	8b-	4ff
.	.	8B-	.	8a-	.
=2	=2	=2	=2	=2	=2
IV	4CC	4e-	4B-	8g	4gg
.	.	.	.	8b-	.
V	4DD	4f	4f	4ay	8ff
.	.	.	.	.	8ee-
I;	4GG;	4B-;	4f;	4b-;	4dd;
Vb	4DD	4A	4f	4cc	4cc
=3	=3	=3	=3	=3	=3
vi	4EE	4G	4B-	4b-	8dd
.	.	.	.	.	8ee
iii	4BB	8d	8f	4a	4ff
.	.	8c	8e	.	.
vi7b	4EE	4B-	8d	4g	4ff
.	.	.	8g	.	.
V/V	4AA	4c	8cc	4g	4ee
.	.	.	8b-	.	.
=4	=4	=4	=4	=4	=4
V;	2.DD;	2.F;	2.a;	2.f;	2.ff;
V	4DD	4F	8f	4a	4ff
.	.	.	8e-	.	.
=5	=5	=5	=5	=5	=5
I	4GG	8B-	8d	4b-	4ff
.	.	8c	8e-	.	.
iii	4BB	8d	8f	4a	4ff
.	.	8c	8e-	.	.
I	2GG	4.B-	8d	8b-	8ff
.	.	.	8e-	8cc	8ee-
.	.	.	4f	8dd	8dd
.	.	8c	.	8cc	8ee-
=6	=6	=6	=6	=6	=6
!!linebreak: 2
Ib	4GG	4d	4f	4b-	8ff
.	.	.	.	.	8ee-
IV7	4CC	4e-	4g	8b-	4dd
.	.	.	.	16a	.
.	.	.	.	16g	.
V;	4DD;	4f;	4c;	4a;	4cc;
iii	4BB	4d	8d	4a	4ff
.	.	.	8c	.	.
=7	=7	=7	=7	=7	=7
IVb	4CC	[4G	8B-	4b-	4ee-
.	.	.	8c	.	.
vi	8EE	8G]	8d	8b-	4dd
iiib	8BB	8F	8f	8a	.
iib	4AA	8E-	4g	4g	4cc
.	.	8C	.	.	.
V	4DD	8F	4f	4a	4cc
.	.	8e-	.	.	.
=8	=8	=8	=8	=8	=8
Ib	4GG	4d	4f	4b-	8b-
.	.	.	.	.	8cc
viib	4FF#	4c	4e-	4a	8dd
.	.	.	.	.	8ee-
viioD7/ii;	4GG#;	4B;	4d;	4a-;	4ff;
V7b/ii	4EE	4BBy	4d	4g	4ff
=9	=9	=9	=9	=9	=9
ii	4AA	4C	8e-	8g	4ee-
.	.	.	8f	8ay	.
vi	4EE	8G	4g	8b-	4dd
.	.	8F	.	8a	.
iib	4AA	8E-	8g	4g	4cc
.	.	8C	8e-	.	.
V	4DD	4F	8c	4a	4cc
.	.	.	16d	.	.
.	.	.	16e-	.	.
=10	=10	=10	=10	=10	=10
I;	2.GG;	2.BB-;	2.d;	2.f;	2.b-;
==	==	==	==	==	==
*-	*-	*-	*-	*-	*-
!!!CDT: 1685/3//-1750/7/28
!!!OCY: Deutschland
!!!AGN: chorale
!!!AST: Baroque
!!!AIN: vox
!!!YOY: 1941
!!!PPP: New York; London
!!!PPR: G. Schirmer
!!!ENC: David Huron
!!!EED: David Huron
!!!YEN: United States of America
!!!YER: 1992
!!!YEC: Copyright 1992 David Huron
!!!YEM: Rights to all derivative electronic formats reserved.
!!!YER: March 20, 1996
!!!AMT: simple quadruple
!!!EEV: 1.1
!!chor2scor: -l 2 -s 0.6 -o %b.pmx
